icons/apple-fill.svg

<svg viewBox="0 0 24 24" fill="currentColor" xmlns="http://www.w3.org/2000/svg"><path d="M11.6734 7.22198C10.7974 7.22198 9.44138 6.22598 8.01338 6.26198C6.12938 6.28598 4.40138 7.35397 3.42938 9.04597C1.47338 12.442 2.92538 17.458 4.83338 20.218C5.76938 21.562 6.87338 23.074 8.33738 23.026C9.74138 22.966 10.2694 22.114 11.9734 22.114C13.6654 22.114 14.1454 23.026 15.6334 22.99C17.1454 22.966 18.1054 21.622 19.0294 20.266C20.0974 18.706 20.5414 17.194 20.5654 17.11C20.5294 17.098 17.6254 15.982 17.5894 12.622C17.5654 9.81397 19.8814 8.46998 19.9894 8.40998C18.6694 6.47798 16.6414 6.26198 15.9334 6.21398C14.0854 6.06998 12.5374 7.22198 11.6734 7.22198ZM14.7934 4.38998C15.5734 3.45398 16.0894 2.14598 15.9454 0.849976C14.8294 0.897976 13.4854 1.59398 12.6814 2.52998C11.9614 3.35798 11.3374 4.68998 11.5054 5.96198C12.7414 6.05798 14.0134 5.32598 14.7934 4.38998Z"/></svg>

<svg xmlns="http://www.w3.org/2000/svg" viewBox="0 0 24 24">
    <g>
        <path fill="none" d="M0 0h24v24H0z"/>
        <path fill-rule="nonzero" d="M11.624 7.222c-.876 0-2.232-.996-3.66-.96-1.884.024-3.612 1.092-4.584 2.784-1.956 3.396-.504 8.412 1.404 11.172.936 1.344 2.04 2.856 3.504 2.808 1.404-.06 1.932-.912 3.636-.912 1.692 0 2.172.912 3.66.876 1.512-.024 2.472-1.368 3.396-2.724 1.068-1.56 1.512-3.072 1.536-3.156-.036-.012-2.94-1.128-2.976-4.488-.024-2.808 2.292-4.152 2.4-4.212-1.32-1.932-3.348-2.148-4.056-2.196-1.848-.144-3.396 1.008-4.26 1.008zm3.12-2.832c.78-.936 1.296-2.244 1.152-3.54-1.116.048-2.46.744-3.264 1.68-.72.828-1.344 2.16-1.176 3.432 1.236.096 2.508-.636 3.288-1.572z"/>
    </g>
</svg>
